src/lib/packages/icons/src/assets/line/shield-user.svg

<svg width="24" height="24" viewBox="0 0 24 24" fill="none" xmlns="http://www.w3.org/2000/svg">
<path d="M12 22.7501C11.92 22.7501 11.8399 22.7371 11.7629 22.7111C10.1739 22.1811 2.25 19.1221 2.25 10.8881V5.00012C2.25 4.64312 2.50203 4.33401 2.85303 4.26501C7.73303 3.28901 9.46305 2.43111 11.6541 1.34411C11.8661 1.23911 12.146 1.22519 12.356 1.33019C14.515 2.41919 16.2209 3.27901 21.1479 4.26501C21.4989 4.33501 21.751 4.64312 21.751 5.00012V10.889C21.751 19.123 13.827 22.182 12.238 22.712C12.16 22.737 12.08 22.7501 12 22.7501ZM3.75 5.61218V10.8881C3.75 17.7531 10.168 20.5482 12 21.2052C13.832 20.5482 20.25 17.7521 20.25 10.8881V5.61218C15.827 4.68618 13.9679 3.81901 12.0149 2.83801C9.93789 3.86501 8.135 4.69618 3.75 5.61218ZM12.0061 12.0502C10.6831 12.0502 9.60693 10.973 9.60693 9.65002C9.60693 8.32702 10.6831 7.25012 12.0061 7.25012C13.3291 7.25012 14.406 8.32702 14.406 9.65002C14.406 10.973 13.3291 12.0502 12.0061 12.0502ZM12.0061 8.75012C11.5101 8.75012 11.1069 9.15402 11.1069 9.65002C11.1069 10.146 11.5101 10.5502 12.0061 10.5502C12.5021 10.5502 12.906 10.146 12.906 9.65002C12.906 9.15402 12.5021 8.75012 12.0061 8.75012ZM15 16.7501C14.586 16.7501 14.25 16.4141 14.25 16.0001V15.6971C14.25 14.9771 13.7531 14.2501 12.6421 14.2501H11.3589C10.2479 14.2501 9.75098 14.9771 9.75098 15.6971V16.0001C9.75098 16.4141 9.41498 16.7501 9.00098 16.7501C8.58698 16.7501 8.25098 16.4141 8.25098 16.0001V15.6971C8.25098 14.2331 9.31789 12.7501 11.3589 12.7501H12.6421C14.6831 12.7501 15.75 14.2321 15.75 15.6971V16.0001C15.75 16.4141 15.414 16.7501 15 16.7501Z" fill="currentColor"/>
</svg>

<svg xmlns="http://www.w3.org/2000/svg" width="24" height="24" fill="none"><path fill="currentColor" d="M12 22.75a.741.741 0 0 1-.237-.039c-1.59-.53-9.513-3.589-9.513-11.823V5c0-.357.252-.666.603-.735 4.88-.976 6.61-1.834 8.801-2.92a.822.822 0 0 1 .702-.015c2.159 1.09 3.865 1.949 8.792 2.935A.75.75 0 0 1 21.75 5v5.889c0 8.234-7.924 11.293-9.513 11.823a.78.78 0 0 1-.238.038ZM3.75 5.612v5.276c0 6.865 6.418 9.66 8.25 10.317 1.832-.657 8.25-3.453 8.25-10.317V5.612c-4.423-.926-6.282-1.793-8.235-2.774-2.077 1.027-3.88 1.858-8.265 2.774Zm8.256 6.438a2.403 2.403 0 0 1-2.4-2.4c0-1.323 1.077-2.4 2.4-2.4s2.4 1.077 2.4 2.4-1.077 2.4-2.4 2.4Zm0-3.3a.9.9 0 0 0 0 1.8.901.901 0 0 0 0-1.8Zm2.994 8a.75.75 0 0 1-.75-.75v-.303c0-.72-.497-1.447-1.608-1.447H11.36c-1.111 0-1.608.727-1.608 1.447V16a.75.75 0 0 1-1.5 0v-.303c0-1.464 1.067-2.947 3.108-2.947h1.283c2.041 0 3.108 1.482 3.108 2.947V16a.75.75 0 0 1-.75.75Z"/></svg>
